X:1
T:Title
%%score { ( 1 3 ) | 2 }
L:1/8
M:4/4
K:A
V:1 treble nm="Grand Piano"
V:3 treble 
V:2 bass 
V:1
 z4 z2[Q:1/4=100] E>E | [CA]>[DB] c>d e2 d2 | c>d c>B [CA]2 [CE]>[CE] | %3
 [DF]>[DF] [EF]>[EF] [^DF]>[DB] [Dc]>[DB] | B6 z2 | c>c c>c [Fd]>[Ec] [EB]>[EA] | %6
[M:9/8] [EG]2 [DF]- [DF] [Fd]2- [Fd]A>F |[M:4/4] E>E E>E E>E c>B |[M:3/4] [A,CA]6 |[M:1/4] A>A | %10
[M:4/4] [Fd]2 [Fd]2 [Fd]2 [Fd]2 | [Ec]>[Fd] [Ec]>[DB] [CA]4 | B>A F2 B>A F2 | E>E E>F E4 | %14
 [EA]>[EA] [EB]>[Ec] B2 E2 | d>d c>B c4 | e>d c2 e>d c2 |[M:7/8] c>dc>B [CA]3 |] %18
V:2
 z4 z2 E,>E, | [A,,E,]>[A,,E,] [A,E]>[A,B,E] [A,CE]2 [A,B,E]2 | %2
 [E,A,E]>[E,A,E] [E,G,E]>[E,G,D] [A,,A,]2 [A,,A,]>[A,,A,] | %3
 [D,A,]>[D,A,] [C,^A,]>[C,A,] [B,,B,]>[B,,B,] [B,,=A,]>[B,,A,] | %4
 [E,G,E]2 [F,A,]2 [G,B,]2 [E,G,E]>[E,G,E] | %5
 [A,E]>[A,E] [A,E]>[A,E] [A,,A,]>[A,,A,] [B,,G,]>[C,A,] | %6
[M:9/8] [D,A,]2 [D,A,]- [D,A,] [D,A,]2- [D,A,][D,F,D]>[D,A,D] | %7
[M:4/4] [E,G,D]>[E,G,D] [E,A,C]>[E,C] [E,B,D]>[E,G,D] [E,G,E]>[E,G,D] |[M:3/4] A,,6 | %9
[M:1/4] A,>A, |[M:4/4] [D,A,]2 [D,A,]2 [D,A,]2 [D,A,]2 | [A,,A,]>[A,,A,] [A,,A,]>[A,,E,] [A,,E,]4 | %12
 [D,F,D]>[D,F,D] [D,A,D]2 [D,F,D]>[D,F,D] [D,A,D]2 | [A,C]>[A,C] [A,C]>[A,D] [A,C]4 | %14
 [C,A,]>[C,A,] [B,,G,]>[A,,A,] [E,G,E]2 [E,G,]2 | %15
 [E,B,E]>[E,B,E] [E,A,E]>[E,G,E][K:treble] [A,E]4 | [CEc]>[B,DB] [A,CA]2 [CEc]>[B,DB] [A,CA]2 | %17
[M:7/8][K:bass] [E,A,E]>[E,A,F][E,G,E]>[E,D] [A,,E,]3 |] %18
V:3
 x8 | x8 | x8 | x8 | z2 ^D2 E2 e>d | x8 |[M:9/8] x9 |[M:4/4] x8 |[M:3/4] x6 |[M:1/4] x2 | %10
[M:4/4] x8 | x8 | x8 | x8 | x8 | x8 | x8 |[M:7/8] x7 |] %18

